X: 2
T: No_109_I_Go_to_the_Big_Bear's_Lodge.krn
N: Derived from No_109_I_Go_to_the_Big_Bear's_Lodge.krn
%%abc-version 2.0
%%abcx-abcm2ps-target-version 5.9.1 (29 Sep 2008)
%%abc-creator hum2abc beta
%%abcx-conversion-date 2019/03/15 08:29:13
%%humdrum-veritas 3473162380
%%humdrum-veritas-data 2377812697
%%linebreak <none>
%%barnumbers 0
L: 1/8
M: 2/4
%%staves {1 2}
V: 1 clef=bass
V: 2 clef=bass
K: E
[V:1] C [I:setbarnb 1]| 
[V:2] z | 
[V:1] C3E | 
[V:2] G,,G,, G,,G,, | 
[V:1] E3E | 
[V:2] G,,G,, G,,G,, | 
[V:1] (C2G,)G, | 
[V:2] z4 | 
[V:1] G,4 | 
[V:2] z4 | 
[V:1] (G,4 | 
[V:2] z4 | 
[V:1] F,3)F, | 
[V:2] z4 | 
[V:1] F,3F, | 
[V:2] z4 | 
[V:1] (E,3C,) | 
[V:2] z4 | 
[V:1] C,2C,2 | 
[V:2] z4 | 
[V:1] [M:3/8]C,3 |]  
[V:2] [M:3/8]z3 |]  



